X: 4606
T: Bourée Sans Souci
R: barndance
M: 4/4
K: Eminor
B,|E>F GA Beee|d>c BA c2 B2|A>G FA G>F EG|FG AG G2 FB,|
E>F GA Beee|f>e dc c2 B2|A>G FA G>F EG|1 FG GF E3:|2 FG GF EFGA||
B3 c B3 B|AB cA B2 G2|E2 GA BBBB|AB cd B4|
B3 c B3 G|AB c^d f2 e2|d2 BG B2 GE|1 FGGF EFGA:|2 FGGF E3||

